assets/images/MCCGroupIcons/MCC-Misc.svg

<svg xmlns="http://www.w3.org/2000/svg" viewBox="0 0 40 40"><style type="text/css">.st0{fill-rule:evenodd;clip-rule:evenodd}</style><path fill-rule="evenodd" d="M40 23.4V24.2L38 36.4C37.8 37.4 37 38 36 38H4C3 38 2.2 37.4 2 36.4L0 24.4V23.6C0 23.4 0 23.2 0.2 23L4.8 15.8L2 6.6V6.4V6V5.6C2.2 3.6 4 2 6 2H34C36 2 37.8 3.6 38 5.6V6V6.4V6.6L35.2 15.6L39.8 22.8C39.8 22.9 39.85 23 39.9 23.1C39.95 23.2 40 23.3 40 23.4ZM31.4 14.4L33.4 8H6.6L8.6 14.4H31.4ZM26 23C26 22.4 26.4 22 27 22H34.4L31.6 17.6H8.4L5.6 22H13C13.6 22 14 22.4 14 23V30C14 31 15 32 16 32H24C25 32 26 31 26 30V23ZM22.5999 24.4C22.5999 25.4 22.1999 26.2 21.3999 26.6L22.7999 29.2C22.9999 29.6 22.7999 30 22.3999 30H17.9999C17.5999 30 17.3999 29.6 17.5999 29.2L18.9999 26.6C18.1999 26 17.7999 25.4 17.7999 24.4C17.7999 23.2 18.9999 22 20.1999 22C21.3999 22 22.5999 23 22.5999 24.4Z" class="st0" clip-rule="evenodd"/></svg>

<svg xmlns="http://www.w3.org/2000/svg" viewBox="0 0 40 40"><style>.st0{fill-rule:evenodd;clip-rule:evenodd}</style><path fill-rule="evenodd" d="M40 23.4v.8l-2 12.2c-.2 1-1 1.6-2 1.6H4c-1 0-1.8-.6-2-1.6l-2-12v-.8c0-.2 0-.4.2-.6l4.6-7.2L2 6.6v-1C2.2 3.6 4 2 6 2h28c2 0 3.8 1.6 4 3.6v1l-2.8 9 4.6 7.2c0 .1.05.2.1.3s.1.2.1.3m-8.6-9 2-6.4H6.6l2 6.4zM26 23c0-.6.4-1 1-1h7.4l-2.8-4.4H8.4L5.6 22H13c.6 0 1 .4 1 1v7c0 1 1 2 2 2h8c1 0 2-1 2-2zm-3.4 1.4c0 1-.4 1.8-1.2 2.2l1.4 2.6c.2.4 0 .8-.4.8H18c-.4 0-.6-.4-.4-.8l1.4-2.6c-.8-.6-1.2-1.2-1.2-2.2 0-1.2 1.2-2.4 2.4-2.4s2.4 1 2.4 2.4" class="st0" clip-rule="evenodd"/></svg>
